<?xml version="1.0" encoding="UTF-8"?>
<map version="1.10" tiledversion="1.12.2" orientation="orthogonal" renderorder="right-down" width="32" height="40" tilewidth="16" tileheight="16" infinite="0" nextlayerid="5" nextobjectid="6">
 <tileset firstgid="1" source="tower-up-plants.tsx"/>
 <tileset firstgid="19" source="tower-up.tsx"/>
 <layer id="1" name="Background" width="32" height="40">
  <data encoding="csv">
33,33,33,33,33,33,33,33,33,33,33,33,33,33,33,33,33,33,33,33,33,33,33,32,24,25,33,32,33,32,33,33,
33,33,33,33,33,33,33,33,33,33,33,33,33,33,33,33,33,33,33,32,32,32,33,32,24,25,33,33,33,33,33,33,
33,33,33,33,33,33,33,33,33,33,33,32,32,32,32,32,32,32,33,33,33,33,33,32,24,25,33,33,33,33,33,33,
33,33,33,33,33,33,33,33,33,33,33,33,33,33,33,33,33,33,33,33,33,33,33,32,24,25,33,33,33,33,33,33,
33,33,33,33,33,33,33,33,33,33,33,33,33,33,33,33,33,33,33,33,33,33,33,32,24,25,33,32,32,33,33,33,
33,33,33,33,33,19,20,20,20,20,20,20,20,20,20,20,20,20,20,20,20,20,20,20,28,25,33,32,32,33,33,33,
33,33,33,33,33,24,25,25,25,25,25,25,25,25,25,25,25,25,25,25,25,25,25,25,25,25,33,32,32,33,33,33,
33,33,33,33,33,24,25,22,30,30,30,30,30,30,30,30,30,30,30,30,30,30,30,30,30,30,31,33,33,33,33,33,
33,33,33,33,33,24,25,26,32,32,32,32,32,32,32,32,32,32,32,32,32,32,32,32,32,32,32,32,32,32,32,33,
33,33,33,33,33,24,25,26,32,32,32,32,33,33,33,32,32,32,33,33,33,33,33,33,33,33,33,33,33,33,33,33,
33,33,33,33,33,24,25,26,33,33,33,33,33,33,33,33,33,33,32,32,33,33,33,33,32,32,32,32,32,32,32,33,
33,33,33,33,33,24,25,26,32,33,33,33,33,33,32,32,32,33,33,33,33,32,32,32,32,32,32,32,32,32,32,32,
33,33,33,33,33,24,25,26,32,32,32,32,32,33,32,32,33,33,33,33,33,33,33,33,32,32,32,32,32,32,32,32,
33,33,33,33,33,24,25,26,32,32,32,32,32,33,33,33,33,33,33,33,33,33,33,33,33,32,32,32,32,32,32,32,
33,33,33,33,33,24,25,26,33,33,33,33,33,33,33,33,33,33,33,33,33,33,32,32,32,32,32,32,32,32,33,33,
33,33,33,33,33,24,25,26,33,33,32,33,32,32,32,32,32,33,33,33,33,32,32,32,32,32,32,33,33,33,33,33,
33,33,33,33,33,24,25,26,33,33,33,32,32,32,32,32,32,32,32,33,33,33,33,33,33,33,33,32,32,32,33,33,
33,33,33,33,33,24,25,26,33,32,33,33,33,33,33,32,32,32,32,33,33,33,32,33,33,32,32,32,32,33,33,33,
32,33,33,33,33,24,25,26,33,33,33,33,33,33,33,33,32,32,32,33,33,33,33,32,33,32,32,33,33,33,33,33,
33,33,33,33,33,24,25,26,33,33,33,33,33,33,33,33,33,33,33,33,33,33,33,33,32,33,33,33,33,33,33,33,
33,33,33,33,33,24,25,26,33,33,33,33,33,33,33,33,33,33,33,33,33,32,33,33,33,33,33,33,33,33,33,33,
33,33,33,33,33,24,25,27,20,20,20,20,20,20,20,20,20,21,33,33,33,33,33,33,33,33,33,33,33,33,33,33,
33,33,33,33,33,24,25,25,25,25,25,25,25,25,25,25,25,26,33,33,33,33,33,33,33,33,33,33,33,33,33,33,
33,33,33,33,33,29,30,30,30,30,30,30,30,30,30,23,25,26,33,33,33,33,33,33,33,33,33,33,33,33,33,33,
33,33,33,33,33,33,33,33,33,33,33,33,33,33,33,24,25,26,33,33,33,33,33,33,33,33,33,33,33,33,33,33,
33,33,33,33,33,33,33,33,33,33,33,33,33,33,33,24,25,26,33,33,33,33,33,33,33,33,33,33,33,33,33,33,
33,33,32,32,33,33,33,33,33,33,33,33,33,33,33,24,25,26,33,33,33,33,33,33,33,33,33,33,33,33,33,33,
33,33,32,33,33,33,33,33,33,32,33,33,32,33,33,24,25,26,33,33,33,33,33,32,33,33,33,33,33,32,33,33,
33,33,33,33,32,33,33,33,33,32,33,33,33,33,33,24,25,26,33,33,33,33,33,33,33,33,33,33,33,32,33,33,
33,33,32,32,33,33,33,33,33,33,33,33,33,33,33,24,25,26,33,33,33,33,33,33,33,33,33,33,33,33,33,33,
33,33,32,32,33,33,33,32,33,33,33,33,33,33,33,24,25,26,33,33,33,33,33,32,33,33,33,33,33,33,33,33,
33,33,33,32,32,33,33,33,33,33,32,33,33,33,33,24,25,26,33,33,33,33,32,33,33,33,33,33,33,33,33,33,
33,33,33,33,32,32,33,33,33,33,33,33,33,33,33,24,25,26,33,33,33,32,32,33,33,33,33,33,33,33,33,33,
33,33,32,32,32,32,33,33,33,33,33,33,33,33,33,24,25,26,33,33,33,33,33,33,33,33,33,33,33,33,33,33,
33,32,32,32,32,33,33,32,33,33,33,33,33,33,33,24,25,26,33,33,33,33,33,33,33,33,33,33,33,33,33,33,
33,32,32,32,32,33,32,32,32,33,33,33,33,33,33,24,25,26,33,33,33,33,33,33,33,33,33,33,33,33,33,33,
33,33,32,32,32,32,32,32,32,33,33,33,33,33,33,24,25,26,33,33,33,33,33,33,33,33,33,33,33,33,33,33,
33,33,33,32,32,32,32,32,33,33,33,33,33,33,33,33,33,33,33,33,33,33,33,33,33,33,33,33,33,33,33,33,
33,33,33,33,33,33,33,33,33,33,33,33,33,33,33,33,33,33,33,33,33,33,33,33,33,33,33,33,33,33,33,33,
33,33,33,33,33,33,33,33,33,33,33,33,33,33,33,33,33,33,33,33,33,33,33,33,33,33,33,33,33,33,33,33
</data>
 </layer>
 <layer id="4" name="Plants" width="32" height="40">
  <data encoding="csv">
0,0,0,0,0,0,0,0,0,0,0,0,0,0,0,0,0,0,0,0,0,0,0,0,0,0,0,0,0,0,0,0,
0,0,0,0,0,0,0,0,0,0,0,0,0,0,0,0,0,0,0,0,0,0,0,0,0,0,0,0,0,0,0,0,
0,0,0,0,0,0,0,0,0,0,0,0,0,0,0,0,0,0,0,0,0,10,0,0,0,0,0,0,0,0,0,0,
0,0,0,0,0,0,0,0,0,0,0,0,0,10,0,0,0,0,0,0,0,0,0,0,0,0,0,0,0,0,0,0,
13,0,0,0,0,0,0,0,0,0,10,0,0,0,0,0,0,0,0,0,0,0,0,0,0,0,0,0,0,0,0,0,
0,0,0,0,0,0,0,0,0,0,0,0,0,0,0,0,0,0,0,0,0,0,0,0,0,0,0,0,0,0,0,0,
0,0,0,0,16,0,0,0,0,0,0,0,0,0,0,0,0,0,0,0,0,0,0,0,0,0,0,0,0,0,0,0,
0,0,0,0,0,0,0,0,0,0,0,0,0,0,0,0,0,0,0,0,0,0,0,0,0,0,0,0,0,10,0,0,
0,14,12,0,0,0,0,0,0,0,0,0,0,0,0,0,17,0,0,0,0,0,0,0,0,0,0,0,0,0,0,0,
12,0,9,0,0,0,0,0,0,17,0,0,17,0,0,0,0,0,0,0,0,0,0,0,0,0,0,0,0,0,0,0,
14,0,0,0,13,0,0,0,0,0,0,17,0,0,17,0,0,0,0,0,0,0,0,0,0,0,0,0,0,0,0,0,
0,0,0,0,0,0,0,0,0,0,17,17,17,0,0,0,0,0,0,0,0,0,16,0,0,0,0,0,0,0,0,0,
0,0,16,0,0,0,0,0,0,17,17,0,0,17,0,0,0,0,0,0,0,0,0,0,0,9,0,0,0,0,0,0,
0,0,0,0,0,0,0,0,0,17,0,17,0,0,17,0,0,0,0,0,0,0,0,0,0,0,0,0,0,0,0,0,
0,0,0,0,0,0,0,0,0,0,0,0,17,0,0,0,17,0,0,0,0,0,0,0,0,16,0,0,0,0,0,0,
0,0,0,0,0,0,0,0,0,0,17,0,0,0,17,0,0,0,0,0,0,0,0,0,0,0,0,0,0,0,0,0,
0,0,0,0,0,0,0,0,17,0,0,0,17,0,0,0,0,0,0,0,0,0,0,0,0,0,0,0,0,0,0,0,
0,0,0,0,0,0,0,0,0,0,0,0,0,17,0,0,0,0,0,0,0,0,16,0,0,0,0,0,0,0,0,0,
0,0,13,0,0,0,0,0,0,0,0,0,0,0,0,0,0,0,0,0,0,0,0,0,0,0,0,0,0,0,0,0,
0,0,0,0,0,0,0,0,0,0,0,0,0,0,0,0,0,0,0,0,0,0,0,0,0,0,0,16,0,0,0,0,
0,0,0,0,0,0,0,0,0,0,0,0,0,0,0,0,0,0,0,0,0,0,0,0,0,0,0,0,0,0,0,0,
0,0,0,0,0,0,0,0,0,0,0,0,0,0,0,0,0,16,0,0,0,0,0,0,0,0,0,0,0,0,0,0,
0,0,0,0,0,0,0,0,0,0,0,0,0,0,0,0,0,0,0,0,0,0,0,0,0,0,11,0,0,0,0,0,
0,0,0,0,0,0,0,0,0,0,0,0,0,0,0,0,0,0,0,0,0,0,0,0,0,0,0,0,0,0,0,0,
0,0,0,0,0,0,0,13,0,0,0,0,0,0,0,0,0,0,0,0,0,0,0,0,0,0,0,0,0,0,0,0,
0,0,0,0,0,0,0,0,0,0,0,0,0,0,0,0,0,0,0,0,0,0,0,0,13,0,0,0,0,0,0,0,
0,0,0,0,0,0,0,0,0,0,0,0,0,0,0,0,0,0,0,0,0,0,0,0,0,0,0,0,0,0,0,0,
0,0,10,0,0,0,0,0,10,0,0,0,0,0,0,0,0,0,0,0,0,13,0,0,0,0,0,0,0,0,0,0,
0,0,0,0,0,0,0,0,0,0,0,0,0,0,0,0,0,0,0,0,0,0,0,0,0,0,0,10,0,0,0,0,
0,0,0,0,0,0,0,0,0,0,0,0,0,0,0,0,0,0,0,0,0,0,0,0,0,0,0,0,0,0,0,0,
0,0,0,0,0,0,0,0,0,0,0,0,0,9,0,0,0,0,0,0,0,0,0,0,10,0,0,0,0,0,0,0,
0,0,0,0,0,0,10,0,0,0,0,0,0,10,0,0,0,0,0,0,0,13,0,0,0,0,0,0,0,0,0,0,
0,0,0,0,0,0,0,0,0,0,0,0,0,0,0,0,0,0,0,0,0,0,0,0,0,0,0,0,0,13,0,0,
0,0,0,10,0,0,0,0,0,0,0,0,0,0,0,0,0,0,0,0,0,0,0,0,0,0,0,0,0,0,0,0,
0,0,0,0,0,0,0,0,0,0,0,0,13,0,0,0,0,0,0,0,0,14,12,0,0,0,0,0,0,17,0,0,
0,0,0,0,0,0,0,0,0,0,0,0,0,0,0,0,0,0,0,0,0,12,0,0,0,0,17,0,0,0,0,0,
0,0,0,0,0,0,0,0,0,0,0,0,0,0,0,0,0,0,0,0,0,0,0,0,0,0,0,0,17,0,17,0,
0,0,0,0,0,0,0,0,0,0,0,0,0,0,0,0,0,0,0,0,11,0,0,0,13,0,0,0,0,17,0,0,
0,0,0,0,0,0,0,0,0,0,0,11,0,0,0,0,0,0,0,0,0,0,0,0,0,0,0,17,17,0,17,0,
0,0,0,0,0,0,0,0,0,0,0,0,0,0,0,0,0,0,0,0,0,0,0,0,0,0,0,0,17,0,0,0
</data>
 </layer>
 <objectgroup id="3" name="Spawnpoints">
  <object id="5" name="Player" type="Player" x="41.4216" y="41.2972" width="27.8326" height="25.1392"/>
 </objectgroup>
</map>
